X: 3025
T: Tricatrees
%R: _
B: Henry Playford "Apollo's Banquet", London 1687 (5th Edition)
F: https://archive.org/details/apollosbanquetco01rugg
Z: 2017 John Chambers <jc:trillian.mit.edu>
M: C|
L: 1/8
K: Dm
% - - - - - - - - - -
|:\
d2e2 f2ef | (gf)(ed) e2A2 |\
d2e2 f2ef | gfed e4 ::\
f2g2 a2b2 | g3f g2c2 |
f2g2 a2b2 | g3f g2(fe) |\
!segno!\
f4 e4 | d2ed ^c2(=BA) |\
f4 e2a2 | d2^c2 Hd4 |]
% - - - - - - - - - -

%%sep 1 1 500
%%sep 1 1 500

